__todo__/web.dev.svg

<svg height="96" preserveAspectRatio="xMidYMid" viewBox="0 0 512 96" width="512" xmlns="http://www.w3.org/2000/svg"><path d="m96.7525811 68.3059497h-36.8093951c-.4135887 0-1.2407662 0-1.6543549.4135887l-27.7104435 21.9202016c-.4135887.4135887-.4135887.8271774 0 1.2407661 0 .4135887.4135887.4135887.8271774.4135887h65.7606048c6.6174192 0 12.4076612-5.7902419 11.9940722-12.82125-.413588-6.6174193-6.20383-11.1668951-12.4076609-11.1668951" fill="#00c9db"/><path d="m66.7219049 45.215292c-.4135887-3.3087097-2.0679435-6.6174193-4.5494758-8.6853629l-42.5996371-33.91427418c-5.3766532-4.1358871-12.82124998-3.30870968-16.95713708 2.06794355s-3.30870968 12.82125003 2.06794355 16.95713713l31.01915323 24.8153225-31.01915323 24.8153226c-5.37665323 4.1358871-6.20383065 11.5804839-2.06794355 16.9571371s11.58048388 6.2038307 16.95713708 2.0679436l42.5996371-34.7414516c2.895121-2.4815323 4.5494758-5.790242 4.5494758-9.5125404z" fill="#0d55ff"/><path d="m109.160242 80.3000223c0 6.6174193-5.376653 11.9940725-11.9940722 11.9940725-6.6174193 0-11.9940725-5.3766532-11.9940725-11.9940725 0-6.6174194 5.3766532-11.9940726 11.9940725-11.9940726 6.6174192 0 11.9940722 5.3766532 11.9940722 11.9940726" fill="#7000f2"/><path d="m492.143388 79.8864335h-9.098952l-19.852258-49.2170564h9.926129l14.475605 38.0501613 14.475605-38.0501613h9.926129zm-69.482904-30.1919758h28.124033c-.413589-6.6174193-5.790242-11.9940725-14.062017-11.9940725-7.031008 0-12.407661 4.5494758-14.062016 11.9940725zm14.889194 31.8463307c-14.475605 0-24.815323-11.1668952-24.815323-26.0560887 0-14.8891936 10.339718-26.0560887 24.401734-26.0560887 14.475605 0 23.988145 9.926129 23.988145 26.8832661v.8271774h-38.46375c.413589 9.5125403 7.444597 16.1299597 15.716371 16.1299597 5.790242 0 10.753307-2.895121 13.648428-8.6853629l8.271774 4.1358871c-4.549476 7.8581855-12.82125 12.82125-22.747379 12.82125zm-57.902419 0c-12.82125 0-23.574557-11.5804839-23.574557-26.0560887 0-14.4756049 10.753307-26.0560887 23.574557-26.0560887 7.031008 0 13.648427 3.3087096 16.957137 8.2717742h.413588l-.413588-6.6174194v-22.74737903h9.098951v71.55084673h-8.685363v-6.6174193h-.413588c-3.722299 4.9630645-9.926129 8.2717742-16.957137 8.2717742zm1.240766-8.2717742c9.098951 0 15.716371-7.0310081 15.716371-17.7843145 0-10.3397178-6.61742-17.7843145-15.716371-17.7843145-8.685363 0-15.716371 7.4445967-15.716371 17.7843145 0 10.3397177 7.031008 17.7843145 15.716371 17.7843145zm-28.124033.4135887c0 3.7222984-2.895121 6.6174194-7.031008 6.6174194-3.722298 0-7.031008-3.3087097-7.031008-6.6174194 0-3.7222984 3.30871-6.6174194 7.031008-6.6174194 4.135887 0 7.031008 2.895121 7.031008 6.6174194zm-43.426814-.4135887c8.685363 0 15.716371-7.4445968 15.716371-17.7843145 0-10.3397178-7.031008-17.7843145-15.716371-17.7843145-9.098952 0-15.716371 7.4445967-15.716371 17.7843145 0 10.3397177 6.617419 17.7843145 15.716371 17.7843145zm1.654355 8.2717742c-7.031008 0-13.648428-3.3087097-16.957137-8.2717742h-.413589v6.6174193h-8.685363v-71.55084673h9.098952v22.74737903l-.413589 6.6174194h.413589c3.308709-4.9630646 9.51254-8.2717742 16.957137-8.2717742 12.82125 0 23.574556 11.5804838 23.574556 26.0560887-.413589 14.4756048-10.753306 26.0560887-23.574556 26.0560887zm-71.964436-31.8463307h28.124033c-.413589-6.6174193-5.790242-11.9940725-14.062017-11.9940725-7.031008 0-12.407661 4.5494758-14.062016 11.9940725zm14.889194 31.8463307c-14.475605 0-24.815323-11.1668952-24.815323-26.0560887 0-14.8891936 10.339718-26.0560887 24.401734-26.0560887 14.475605 0 23.988145 9.926129 23.988145 26.8832661v.8271774h-38.46375c.413589 9.5125403 7.444597 16.1299597 15.716371 16.1299597 5.790242 0 10.339718-2.895121 13.648428-8.6853629l8.271774 4.1358871c-4.549476 7.8581855-12.82125 12.82125-22.747379 12.82125zm-26.056089-50.4578226-15.716371 49.2170565h-9.51254l-12.407661-37.6365726-11.994073 37.6365726h-9.51254l-16.12996-49.2170565h9.51254l10.753307 37.2229839 11.994072-37.2229839h9.512541l11.994072 37.2229839 10.753307-37.2229839z" fill="#5f6368"/></svg>

<?xml version="1.0" encoding="UTF-8"?>
<svg width="512px" height="96px" viewBox="0 0 512 96" version="1.1" xmlns="http://www.w3.org/2000/svg" xmlns:xlink="http://www.w3.org/1999/xlink" preserveAspectRatio="xMidYMid">
    <g>
        <g>
            <path d="M96.7525811,68.3059497 L59.943186,68.3059497 C59.5295973,68.3059497 58.7024198,68.3059497 58.2888311,68.7195384 L30.5783876,90.63974 C30.1647989,91.0533287 30.1647989,91.4669174 30.5783876,91.8805061 C30.5783876,92.2940948 30.9919763,92.2940948 31.405565,92.2940948 L97.1661698,92.2940948 C103.783589,92.2940948 109.573831,86.5038529 109.160242,79.4728448 C108.746654,72.8554255 102.956412,68.3059497 96.7525811,68.3059497" fill="#00C9DB"></path>
            <path d="M66.7219049,45.215292 C66.3083162,41.9065823 64.6539614,38.5978727 62.1724291,36.5299291 L19.572792,2.61565492 C14.1961388,-1.52023218 6.75154202,-0.693054758 2.61565492,4.68359847 C-1.52023218,10.0602517 -0.693054758,17.5048485 4.68359847,21.6407356 L35.7027517,46.4560581 L4.68359847,71.2713807 C-0.693054758,75.4072678 -1.52023218,82.8518646 2.61565492,88.2285178 C6.75154202,93.605171 14.1961388,94.4323485 19.572792,90.2964614 L62.1724291,55.5550098 C65.0675501,53.0734775 66.7219049,49.7647678 66.7219049,46.0424694 L66.7219049,45.215292" fill="#0D55FF"></path>
            <path d="M109.160242,80.3000223 C109.160242,86.9174416 103.783589,92.2940948 97.1661698,92.2940948 C90.5487505,92.2940948 85.1720973,86.9174416 85.1720973,80.3000223 C85.1720973,73.6826029 90.5487505,68.3059497 97.1661698,68.3059497 C103.783589,68.3059497 109.160242,73.6826029 109.160242,80.3000223" fill="#7000F2"></path>
        </g>
        <path d="M492.143388,79.8864335 L483.044436,79.8864335 L463.192178,30.6693771 L473.118307,30.6693771 L487.593912,68.7195384 L502.069517,30.6693771 L511.995646,30.6693771 L492.143388,79.8864335 L492.143388,79.8864335 Z M422.660484,49.6944577 L450.784517,49.6944577 C450.370928,43.0770384 444.994275,37.7003852 436.7225,37.7003852 C429.691492,37.7003852 424.314839,42.249861 422.660484,49.6944577 L422.660484,49.6944577 Z M437.549678,81.5407884 C423.074073,81.5407884 412.734355,70.3738932 412.734355,55.4846997 C412.734355,40.5955061 423.074073,29.428611 437.136089,29.428611 C451.611694,29.428611 461.124234,39.35474 461.124234,56.3118771 L461.124234,57.1390545 L422.660484,57.1390545 C423.074073,66.6515948 430.105081,73.2690142 438.376855,73.2690142 C444.167097,73.2690142 449.130162,70.3738932 452.025283,64.5836513 L460.297057,68.7195384 C455.747581,76.5777239 447.475807,81.5407884 437.549678,81.5407884 L437.549678,81.5407884 Z M379.647259,81.5407884 C366.826009,81.5407884 356.072702,69.9603045 356.072702,55.4846997 C356.072702,41.0090948 366.826009,29.428611 379.647259,29.428611 C386.678267,29.428611 393.295686,32.7373206 396.604396,37.7003852 L397.017984,37.7003852 L396.604396,31.0829658 L396.604396,8.33558677 L405.703347,8.33558677 L405.703347,79.8864335 L397.017984,79.8864335 L397.017984,73.2690142 L396.604396,73.2690142 C392.882097,78.2320787 386.678267,81.5407884 379.647259,81.5407884 L379.647259,81.5407884 Z M380.888025,73.2690142 C389.986976,73.2690142 396.604396,66.2380061 396.604396,55.4846997 C396.604396,45.1449819 389.986976,37.7003852 380.888025,37.7003852 C372.202662,37.7003852 365.171654,45.1449819 365.171654,55.4846997 C365.171654,65.8244174 372.202662,73.2690142 380.888025,73.2690142 Z M352.763992,73.6826029 C352.763992,77.4049013 349.868871,80.3000223 345.732984,80.3000223 C342.010686,80.3000223 338.701976,76.9913126 338.701976,73.6826029 C338.701976,69.9603045 342.010686,67.0651835 345.732984,67.0651835 C349.868871,67.0651835 352.763992,69.9603045 352.763992,73.6826029 Z M309.337178,73.2690142 C318.022541,73.2690142 325.053549,65.8244174 325.053549,55.4846997 C325.053549,45.1449819 318.022541,37.7003852 309.337178,37.7003852 C300.238226,37.7003852 293.620807,45.1449819 293.620807,55.4846997 C293.620807,65.8244174 300.238226,73.2690142 309.337178,73.2690142 Z M310.991533,81.5407884 C303.960525,81.5407884 297.343105,78.2320787 294.034396,73.2690142 L293.620807,73.2690142 L293.620807,79.8864335 L284.935444,79.8864335 L284.935444,8.33558677 L294.034396,8.33558677 L294.034396,31.0829658 L293.620807,37.7003852 L294.034396,37.7003852 C297.343105,32.7373206 303.546936,29.428611 310.991533,29.428611 C323.812783,29.428611 334.566089,41.0090948 334.566089,55.4846997 C334.1525,69.9603045 323.812783,81.5407884 310.991533,81.5407884 L310.991533,81.5407884 Z M239.027097,49.6944577 L267.15113,49.6944577 C266.737541,43.0770384 261.360888,37.7003852 253.089113,37.7003852 C246.058105,37.7003852 240.681452,42.249861 239.027097,49.6944577 L239.027097,49.6944577 Z M253.916291,81.5407884 C239.440686,81.5407884 229.100968,70.3738932 229.100968,55.4846997 C229.100968,40.5955061 239.440686,29.428611 253.502702,29.428611 C267.978307,29.428611 277.490847,39.35474 277.490847,56.3118771 L277.490847,57.1390545 L239.027097,57.1390545 C239.440686,66.6515948 246.471694,73.2690142 254.743468,73.2690142 C260.53371,73.2690142 265.083186,70.3738932 268.391896,64.5836513 L276.66367,68.7195384 C272.114194,76.5777239 263.84242,81.5407884 253.916291,81.5407884 L253.916291,81.5407884 Z M227.860202,31.0829658 L212.143831,80.3000223 L202.631291,80.3000223 L190.22363,42.6634497 L178.229557,80.3000223 L168.717017,80.3000223 L152.587057,31.0829658 L162.099597,31.0829658 L172.852904,68.3059497 L184.846976,31.0829658 L194.359517,31.0829658 L206.353589,68.3059497 L217.106896,31.0829658 L227.860202,31.0829658 L227.860202,31.0829658 Z" fill="#5F6368"></path>
    </g>
</svg>
